X:262
T: King of Poland.
C:John Malchair's Third Collection of Tunes
F:https://www.vwml.org/record/Malchair/3619/p26
F:www.vwml.org/topics/historic-dance-and-tune-books/Malchair
Z:Eric Conrad Jan 2020
N:NB1 The MS has no repeats.  They are assumed here.
N:NB4 Pickup rest added.
M:6/4
L:1/4
K:Gm
P:A
|: "_NB1,4"z | B2G BAc | dcd G2A | Bcd f2d | dcd G2 :|
P:B
|: g/a/ | b>ag ^f>=ef | g2G G2A | B>cd f2d | f2d c>BA |
B>cd g2d | B>AG G2 :|



